X:296
%%etbk:tnset id:92,pos:1,rep:3x,ant:
%%etbk:tnset id:324,pos:2,rep:3x,ant:
%%etbk:wsite http://www.thesession.org/tunes/display/43
%%etbk:pldat 2014-09-04T17:58,2014-09-03T18:08,2014-09-02T18:03,2014-09-01T17:58,2014-08-31T11:56,2014-08-28T18:02,2014-08-27T18:07,2014-08-26T15:23,2014-08-25T19:01,2014-08-24T10:45,2014-08-19T18:16,2014-08-06T18:07,2014-08-04T17:56,2014-08-03T14:18,2014-07-26T14:41,2014-07-22T18:08,2014-07-20T11:28,2014-07-18T09:59,2014-07-16T17:32,2014-07-13T13:59,2014-07-05T13:47,2014-07-04T15:29,2014-07-03T09:49
T:Geese in the Bog, The
Z: Piano Box Version by Martin Fleischmann
H: Created 2013-02-19 /  Last Modified 2014-08-24
M:6/8
L:1/8
R:jig
K:Ador
B |: "C"!5!c!1!EE {B}!2!G!1!EE | !5!c!1!EE !2!GAB | !5!c!1!EE !2!G!1!E!2!D | "am"!1!E!3!AA A2B |
"C"!5!c!1!EE {B}!2!G!1!EE | !5!c!1!EE !2!GAB | !5!cBA !2!G!1!E!2!D | "am"!1!E!3!AA A3:|
!4!B|: "C"!1!cd!3!e !4!g!3!e!2!d | !3!e!5!aa !4!ged | !1!cde !4!ged | "am"!3!e!5!aa a2!1!B |
"C"!1!cde !4!ged | !3!e!5!aa !4!g2!1!G | !5!cBA !2!G!1!E!2!D | "am"!1!E!3!AA A3:|


